!!!OTL: ICH HABE DEN FRUEHLING GESEHEN
!!!ARE: Europa, Mitteleuropa, Deutschland, Brandenburg, Gransee
!!!SCT: E073BC
!!!YEM: Copyright 1995, estate of Helmut Schaffrath.
**kern
*ICvox
*Ivox
*M4/4
*k[b-]
*F:
{4c
=1
4a
8a
8g
4f
8dd
8cc
=2
4.cc
8b-
4a}
{8g
8f
=3
4e
8g
8g
4cc
8b-
8g
=4
2a
4r}
{8cc
8b-
=5
8a
8cc
8cc
8cc
8ff
8ee
8dd
8cc
=6
4b-
4dd
4ff}
{8ee
8dd
=7
4cc
8cc
8cc
8dd
8cc
8b-
8g
=8
2f
4r}
==
!!!AGN: Liebes - Lied, Leid, Klage, Tod
!!!ONB: ESAC (Essen Associative Code) Database: ERK2
!!!AMT: simple quadruple
!!!AIN: vox
!!!EED: Helmut Schaffrath
!!!EEV: 1.0
*-
